assets/images/icon.svg

<svg width="512" height="512" viewBox="0 0 512 512" fill="none" xmlns="http://www.w3.org/2000/svg">
<g clip-path="url(#clip0_420_2)">
<g filter="url(#filter0_d_420_2)">
<path d="M103.267 257.231L119.353 217.712C126.318 200.6 112.146 182.365 93.8443 184.889L51.5772 190.718C33.2752 193.242 24.569 214.632 35.9059 229.22L62.0879 262.91C73.4249 277.498 96.3023 274.343 103.267 257.231Z" fill="#FF8C00" stroke="#6100FF" stroke-width="16"/>
<path fill-rule="evenodd" clip-rule="evenodd" d="M261.193 96.1805C270.465 73.3212 301.024 69.1066 316.137 88.6027L476.094 294.944C491.176 314.399 479.561 342.886 455.175 346.25L355.372 360.014L197.086 381.844L97.2826 395.609C72.897 398.972 54.0045 374.693 63.2571 351.881L161.389 109.945C170.661 87.0858 201.22 82.8712 216.333 102.367L244.136 138.232L261.193 96.1805Z" fill="url(#paint0_radial_420_2)"/>
<path fill-rule="evenodd" clip-rule="evenodd" d="M261.193 96.1805C270.465 73.3212 301.024 69.1066 316.137 88.6027L476.094 294.944C491.176 314.399 479.561 342.886 455.175 346.25L355.372 360.014L197.086 381.844L97.2826 395.609C72.897 398.972 54.0045 374.693 63.2571 351.881L161.389 109.945C170.661 87.0858 201.22 82.8712 216.333 102.367L244.136 138.232L261.193 96.1805Z" fill="url(#paint1_radial_420_2)"/>
<path d="M316.137 88.6027L322.46 83.7013L322.46 83.7013L316.137 88.6027ZM261.193 96.1805L253.779 93.1735L253.779 93.1735L261.193 96.1805ZM476.094 294.944L469.772 299.845L469.772 299.845L476.094 294.944ZM455.175 346.25L456.268 354.175L455.175 346.25ZM355.372 360.014L354.279 352.089L355.372 360.014ZM197.086 381.844L198.179 389.769L197.086 381.844ZM97.2826 395.609L96.1896 387.684L97.2826 395.609ZM63.2571 351.881L70.6705 354.888L70.6705 354.888L63.2571 351.881ZM161.389 109.945L153.976 106.938L153.976 106.938L161.389 109.945ZM216.333 102.367L222.656 97.4659L216.333 102.367ZM244.136 138.232L251.55 141.239C250.474 143.891 248.064 145.766 245.229 146.157C242.394 146.548 239.567 145.395 237.813 143.133L244.136 138.232ZM309.814 93.5041C298.479 78.8821 275.56 82.043 268.606 99.1874L253.779 93.1735C265.369 64.5995 303.568 59.3312 322.46 83.7013L309.814 93.5041ZM469.772 299.845L309.814 93.5041L322.46 83.7013L482.417 290.043L469.772 299.845ZM454.082 338.325C472.372 335.802 481.083 314.437 469.772 299.845L482.417 290.043C501.269 314.362 486.75 349.971 456.268 354.175L454.082 338.325ZM354.279 352.089L454.082 338.325L456.268 354.175L356.465 367.939L354.279 352.089ZM195.993 373.919L354.279 352.089L356.465 367.939L198.179 389.769L195.993 373.919ZM96.1896 387.684L195.993 373.919L198.179 389.769L98.3755 403.534L96.1896 387.684ZM70.6705 354.888C63.731 371.997 77.9004 390.206 96.1896 387.684L98.3755 403.534C67.8936 407.738 44.278 377.388 55.8437 348.874L70.6705 354.888ZM168.803 112.952L70.6705 354.888L55.8437 348.874L153.976 106.938L168.803 112.952ZM210.011 107.269C198.676 92.6467 175.757 95.8076 168.803 112.952L153.976 106.938C165.566 78.3641 203.764 73.0958 222.656 97.4659L210.011 107.269ZM237.813 143.133L210.011 107.269L222.656 97.4659L250.459 133.331L237.813 143.133ZM268.606 99.1874L251.55 141.239L236.723 135.225L253.779 93.1735L268.606 99.1874Z" fill="url(#paint2_linear_420_2)"/>
<path d="M377.053 233.835C378.258 231.001 382.079 230.535 383.93 232.995L394.343 246.836C396.195 249.296 394.688 252.838 391.632 253.211L374.439 255.309C371.382 255.682 369.068 252.607 370.273 249.773L377.053 233.835Z" fill="#FF8C00"/>
<path d="M380.587 263.504C383.663 263.661 385.414 267.088 383.741 269.673L376.305 281.155C374.632 283.739 370.788 283.543 369.386 280.801L363.16 268.621C361.759 265.879 363.851 262.648 366.926 262.806L380.587 263.504Z" fill="#FF8C00"/>
<path d="M174.959 261.707C173.032 259.305 169.228 259.891 168.112 262.76L161.833 278.904C160.717 281.774 163.126 284.776 166.169 284.308L183.289 281.673C186.333 281.205 187.728 277.618 185.801 275.216L174.959 261.707Z" fill="#FF8C00"/>
<path d="M179.588 291.227C176.67 292.21 175.911 295.984 178.222 298.019L188.488 307.06C190.799 309.095 194.447 307.866 195.054 304.847L197.75 291.435C198.357 288.416 195.469 285.873 192.551 286.856L179.588 291.227Z" fill="#FF8C00"/>
<ellipse cx="216.876" cy="206.336" rx="23.508" ry="36.9411" transform="rotate(-7.85252 216.876 206.336)" fill="url(#paint3_linear_420_2)"/>
<path d="M217.047 185.892C217.62 188.918 214.702 191.428 211.796 190.411L202.915 187.303C200.008 186.285 199.293 182.503 201.627 180.495L208.76 174.358C211.094 172.35 214.727 173.621 215.299 176.647L217.047 185.892Z" fill="white"/>
<ellipse cx="323.159" cy="191.677" rx="23.508" ry="36.9411" transform="rotate(-7.85252 323.159 191.677)" fill="url(#paint4_linear_420_2)"/>
<path d="M323.331 171.234C323.903 174.259 320.985 176.77 318.079 175.753L309.198 172.644C306.292 171.627 305.576 167.845 307.91 165.837L315.043 159.7C317.377 157.692 321.01 158.963 321.582 161.989L323.331 171.234Z" fill="white"/>
<path opacity="0.1" d="M229.204 258.308C188.602 263.907 183 223.292 183 223.292L264.205 212.092L280.081 209.903L295.958 207.713L377.162 196.514C377.162 196.514 382.764 237.129 342.161 242.729C301.559 248.329 295.958 207.713 295.958 207.713L280.081 209.903L264.205 212.092C264.205 212.092 269.806 252.708 229.204 258.308Z" fill="url(#paint5_linear_420_2)"/>
<path d="M183 223.292C183 223.292 188.602 263.907 229.204 258.308C269.806 252.708 264.205 212.092 264.205 212.092L280.081 209.903L295.958 207.713C295.958 207.713 301.559 248.329 342.161 242.729C382.764 237.129 377.162 196.514 377.162 196.514" stroke="#FF8C00" stroke-width="12" stroke-linecap="round" stroke-linejoin="round"/>
<path d="M250.239 271.441C250.239 271.441 252.992 291.402 272.953 288.649C292.913 285.896 290.161 265.935 290.161 265.935C290.161 265.935 292.913 285.896 312.874 283.143C332.835 280.39 330.082 260.429 330.082 260.429" stroke="url(#paint6_linear_420_2)" stroke-width="8" stroke-linecap="round" stroke-linejoin="round"/>
<path d="M297.775 269.521C295.453 275.225 287.827 276.276 284.048 271.414L272.499 256.553C268.72 251.69 271.622 244.56 277.723 243.719L296.367 241.147C302.468 240.306 307.192 246.384 304.87 252.088L297.775 269.521Z" fill="#3452FF"/>
<path d="M468.48 298.256L440.49 262.239C429.153 247.651 406.275 250.806 399.31 267.918L382.114 310.167C375.149 327.279 389.32 345.514 407.622 342.99L452.809 336.758C471.111 334.234 479.817 312.844 468.48 298.256Z" fill="#FF8C00" stroke="#6100FF" stroke-width="16"/>
<path d="M96.8849 384.926L142.072 378.694C160.374 376.169 169.08 354.779 157.743 340.192L129.753 304.175C118.416 289.587 95.5381 292.742 88.5731 309.854L71.3768 352.103C64.4118 369.215 78.5829 387.45 96.8849 384.926Z" fill="#FF8C00" stroke="#6100FF" stroke-width="16"/>
</g>
</g>
<defs>
<filter id="filter0_d_420_2" x="6.82056" y="56.2007" width="500.027" height="367.726" filterUnits="userSpaceOnUse" color-interpolation-filters="sRGB">
<feFlood flood-opacity="0" result="BackgroundImageFix"/>
<feColorMatrix in="SourceAlpha" type="matrix" values="0 0 0 0 0 0 0 0 0 0 0 0 0 0 0 0 0 0 127 0" result="hardAlpha"/>
<feOffset dy="4"/>
<feGaussianBlur stdDeviation="8"/>
<feComposite in2="hardAlpha" operator="out"/>
<feColorMatrix type="matrix" values="0 0 0 0 0.196078 0 0 0 0 0.333333 0 0 0 0 1 0 0 0 1 0"/>
<feBlend mode="normal" in2="BackgroundImageFix" result="effect1_dropShadow_420_2"/>
<feBlend mode="normal" in="SourceGraphic" in2="effect1_dropShadow_420_2" result="shape"/>
</filter>
<radialGradient id="paint0_radial_420_2" cx="0" cy="0" r="1" gradientUnits="userSpaceOnUse" gradientTransform="translate(271.741 358.225) rotate(-97.8525) scale(204.58 299.811)">
<stop stop-color="#FF8A00"/>
<stop offset="1" stop-color="#FFD600"/>
</radialGradient>
<radialGradient id="paint1_radial_420_2" cx="0" cy="0" r="1" gradientUnits="userSpaceOnUse" gradientTransform="translate(271.741 358.225) rotate(-97.8525) scale(204.58 299.811)">
<stop stop-color="#FF8A00"/>
<stop offset="1" stop-color="#FFD600"/>
</radialGradient>
<linearGradient id="paint2_linear_420_2" x1="290.676" y1="495.511" x2="259.119" y2="266.7" gradientUnits="userSpaceOnUse">
<stop stop-color="#00B3FF"/>
<stop offset="1" stop-color="#6100FF"/>
</linearGradient>
<linearGradient id="paint3_linear_420_2" x1="216.876" y1="78.6409" x2="216.876" y2="386.726" gradientUnits="userSpaceOnUse">
<stop stop-color="#6100FF"/>
<stop offset="1" stop-color="#00B2FF"/>
</linearGradient>
<linearGradient id="paint4_linear_420_2" x1="323.159" y1="63.9827" x2="323.159" y2="372.068" gradientUnits="userSpaceOnUse">
<stop stop-color="#6100FF"/>
<stop offset="1" stop-color="#00B2FF"/>
</linearGradient>
<linearGradient id="paint5_linear_420_2" x1="276.494" y1="205.855" x2="283.121" y2="253.9" gradientUnits="userSpaceOnUse">
<stop stop-color="white"/>
<stop offset="0.9999" stop-color="white" stop-opacity="0"/>
</linearGradient>
<linearGradient id="paint6_linear_420_2" x1="292.9" y1="285.8" x2="290.161" y2="265.935" gradientUnits="userSpaceOnUse">
<stop stop-color="#580FFF"/>
<stop offset="1" stop-color="#3452FF"/>
</linearGradient>
<clipPath id="clip0_420_2">
<rect width="512" height="512" fill="white"/>
</clipPath>
</defs>
</svg>

<svg width="512" height="512" fill="none" xmlns="http://www.w3.org/2000/svg"><g filter="url(#b)" clip-path="url(#a)"><g filter="url(#c)"><path d="M94.937 192.814c12.202-1.683 21.649 10.474 17.006 21.882l-16.085 39.519c-4.644 11.408-19.895 13.511-27.453 3.786l-26.182-33.69c-7.558-9.725-1.754-23.985 10.447-25.668l42.267-5.829Z" fill="#FF8C00"/><path d="M119.353 217.712c6.965-17.112-7.207-35.347-25.509-32.823l-42.267 5.829c-18.302 2.524-27.008 23.914-15.671 38.502l26.182 33.69c11.337 14.588 34.214 11.433 41.179-5.679l16.086-39.519Z" stroke="#6100FF" stroke-width="16"/></g><path fill-rule="evenodd" clip-rule="evenodd" d="M261.193 96.18c9.272-22.859 39.831-27.073 54.944-7.577l159.957 206.341c15.082 19.455 3.467 47.942-20.919 51.306l-99.803 13.764-158.286 21.83-99.803 13.765c-24.386 3.363-43.279-20.916-34.026-43.728l98.132-241.936c9.272-22.86 39.831-27.074 54.944-7.578l27.803 35.865 17.057-42.052Z" fill="url(#d)"/><path fill-rule="evenodd" clip-rule="evenodd" d="M261.193 96.18c9.272-22.859 39.831-27.073 54.944-7.577l159.957 206.341c15.082 19.455 3.467 47.942-20.919 51.306l-99.803 13.764-158.286 21.83-99.803 13.765c-24.386 3.363-43.279-20.916-34.026-43.728l98.132-241.936c9.272-22.86 39.831-27.074 54.944-7.578l27.803 35.865 17.057-42.052Z" fill="url(#e)"/><path d="m316.137 88.603 6.323-4.902-6.323 4.902Zm-54.944 7.578-7.414-3.007 7.414 3.006Zm214.901 198.763-6.322 4.901 6.322-4.901ZM63.257 351.881l7.414 3.007-7.414-3.007Zm98.132-241.936-7.413-3.007 7.413 3.007Zm54.944-7.578 6.323-4.901-6.323 4.901Zm27.803 35.865 7.414 3.007a8 8 0 0 1-13.737 1.894l6.323-4.901Zm65.678-44.728c-11.335-14.622-34.254-11.461-41.208 5.683l-14.827-6.013c11.59-28.575 49.789-33.843 68.681-9.473l-12.646 9.803Zm159.958 206.341L309.814 93.505 322.46 83.7l159.957 206.342-12.645 9.802Zm-15.69 38.48c18.29-2.523 27.001-23.888 15.69-38.48l12.645-9.802c18.852 24.319 4.333 59.928-26.149 64.132l-2.186-15.85Zm-99.803 13.764 99.803-13.764 2.186 15.85-99.803 13.764-2.186-15.85Zm-158.286 21.83 158.286-21.83 2.186 15.85-158.286 21.83-2.186-15.85ZM96.19 387.684l99.803-13.765 2.186 15.85-99.803 13.765-2.186-15.85Zm-25.52-32.796c-6.939 17.109 7.23 35.318 25.52 32.796l2.186 15.85c-30.482 4.204-54.098-26.146-42.532-54.66l14.827 6.014Zm98.133-241.936L70.671 354.888l-14.827-6.014 98.132-241.936 14.827 6.014Zm41.208-5.683c-11.335-14.622-34.254-11.461-41.208 5.683l-14.827-6.014c11.59-28.574 49.788-33.842 68.68-9.472l-12.645 9.803Zm27.802 35.864-27.802-35.864 12.645-9.803 27.803 35.865-12.646 9.802Zm30.793-43.946L251.55 141.24l-14.827-6.014 17.056-42.051 14.827 6.013Z" fill="url(#f)"/><path d="M377.053 233.835c1.205-2.834 5.026-3.3 6.877-.84l10.413 13.841c1.852 2.46.345 6.002-2.711 6.375l-17.193 2.098c-3.057.373-5.371-2.702-4.166-5.536l6.78-15.938ZM380.587 263.504c3.076.157 4.827 3.584 3.154 6.169l-7.436 11.482c-1.673 2.584-5.517 2.388-6.919-.354l-6.226-12.18c-1.401-2.742.691-5.973 3.766-5.815l13.661.698ZM174.959 261.707c-1.927-2.402-5.731-1.816-6.847 1.053l-6.279 16.144c-1.116 2.87 1.293 5.872 4.336 5.404l17.12-2.635c3.044-.468 4.439-4.055 2.512-6.457l-10.842-13.509ZM179.588 291.227c-2.918.983-3.677 4.757-1.366 6.792l10.266 9.041c2.311 2.035 5.959.806 6.566-2.213l2.696-13.412c.607-3.019-2.281-5.562-5.199-4.579l-12.963 4.371Z" fill="#FF8C00"/><ellipse cx="216.876" cy="206.336" rx="23.508" ry="36.941" transform="rotate(-7.853 216.876 206.336)" fill="url(#g)"/><path d="M217.047 185.892c.573 3.026-2.345 5.536-5.251 4.519l-8.881-3.108c-2.907-1.018-3.622-4.8-1.288-6.808l7.133-6.137c2.334-2.008 5.967-.737 6.539 2.289l1.748 9.245Z" fill="#fff"/><ellipse cx="323.159" cy="191.677" rx="23.508" ry="36.941" transform="rotate(-7.853 323.159 191.677)" fill="url(#h)"/><path d="M323.331 171.234c.572 3.025-2.346 5.536-5.252 4.519l-8.881-3.109c-2.906-1.017-3.622-4.799-1.288-6.807l7.133-6.137c2.334-2.008 5.967-.737 6.539 2.289l1.749 9.245Z" fill="#fff"/><path opacity=".1" d="M229.204 258.308C188.602 263.907 183 223.292 183 223.292l81.205-11.2 15.876-2.189 15.877-2.19 81.204-11.199s5.602 40.615-35.001 46.215c-40.602 5.6-46.203-35.016-46.203-35.016l-15.877 2.19-15.876 2.189s5.601 40.616-35.001 46.216Z" fill="url(#i)"/><path d="M183 223.292s5.602 40.615 46.204 35.016c40.602-5.6 35.001-46.216 35.001-46.216l15.876-2.189 15.877-2.19s5.601 40.616 46.203 35.016c40.603-5.6 35.001-46.215 35.001-46.215" stroke="#FF8C00" stroke-width="12" stroke-linecap="round" stroke-linejoin="round"/><path d="M250.239 271.441s2.753 19.961 22.714 17.208c19.96-2.753 17.208-22.714 17.208-22.714s2.752 19.961 22.713 17.208c19.961-2.753 17.208-22.714 17.208-22.714" stroke="url(#j)" stroke-width="8" stroke-linecap="round" stroke-linejoin="round"/><path d="M297.775 269.521c-2.322 5.704-9.948 6.755-13.727 1.893l-11.549-14.861c-3.779-4.863-.877-11.993 5.224-12.834l18.644-2.572c6.101-.841 10.825 5.237 8.503 10.941l-7.095 17.433Z" fill="#3452FF"/><g filter="url(#k)"><path d="M406.72 270.934c4.643-11.408 19.895-13.511 27.453-3.786l27.99 36.017c7.558 9.725 1.754 23.985-10.447 25.668l-45.187 6.232c-12.201 1.683-21.649-10.474-17.005-21.882l17.196-42.249Z" fill="#FF8C00"/><path d="M440.49 262.239c-11.337-14.588-34.215-11.433-41.18 5.679l-17.196 42.249c-6.965 17.112 7.206 35.347 25.508 32.823l45.187-6.232c18.302-2.524 27.008-23.914 15.671-38.502l-27.99-36.017Z" stroke="#6100FF" stroke-width="16"/></g><g filter="url(#l)"><path d="M151.426 345.101c7.558 9.725 1.754 23.985-10.447 25.668l-45.187 6.232c-12.201 1.682-21.649-10.474-17.005-21.882l17.196-42.249c4.643-11.408 19.895-13.512 27.453-3.786l27.99 36.017Z" fill="#FF8C00"/><path d="M142.072 378.694c18.302-2.525 27.008-23.915 15.671-38.502l-27.99-36.017c-11.337-14.588-34.215-11.433-41.18 5.679l-17.196 42.249c-6.965 17.112 7.206 35.347 25.508 32.823l45.187-6.232Z" stroke="#6100FF" stroke-width="16"/></g></g><defs><linearGradient id="f" x1="290.676" y1="495.511" x2="259.119" y2="266.7" gradientUnits="userSpaceOnUse"><stop stop-color="#00B3FF"/><stop offset="1" stop-color="#6100FF"/></linearGradient><linearGradient id="g" x1="216.876" y1="78.641" x2="216.876" y2="386.726" gradientUnits="userSpaceOnUse"><stop stop-color="#6100FF"/><stop offset="1" stop-color="#00B2FF"/></linearGradient><linearGradient id="h" x1="323.159" y1="63.983" x2="323.159" y2="372.068" gradientUnits="userSpaceOnUse"><stop stop-color="#6100FF"/><stop offset="1" stop-color="#00B2FF"/></linearGradient><linearGradient id="i" x1="276.494" y1="205.855" x2="283.121" y2="253.9" gradientUnits="userSpaceOnUse"><stop stop-color="#fff"/><stop offset="1" stop-color="#fff" stop-opacity="0"/></linearGradient><linearGradient id="j" x1="292.9" y1="285.8" x2="290.161" y2="265.935" gradientUnits="userSpaceOnUse"><stop stop-color="#580FFF"/><stop offset="1" stop-color="#3452FF"/></linearGradient><filter id="b" x="6.821" y="56.201" width="500.027" height="367.726" filterUnits="userSpaceOnUse" color-interpolation-filters="sRGB"><feFlood flood-opacity="0" result="BackgroundImageFix"/><feColorMatrix in="SourceAlpha" values="0 0 0 0 0 0 0 0 0 0 0 0 0 0 0 0 0 0 127 0" result="hardAlpha"/><feOffset dy="4"/><feGaussianBlur stdDeviation="8"/><feComposite in2="hardAlpha" operator="out"/><feColorMatrix values="0 0 0 0 0.196078 0 0 0 0 0.333333 0 0 0 0 1 0 0 0 1 0"/><feBlend in2="BackgroundImageFix" result="effect1_dropShadow_14_185"/><feBlend in="SourceGraphic" in2="effect1_dropShadow_14_185" result="shape"/></filter><filter id="c" x="6.821" y="164.65" width="138.35" height="135.539" filterUnits="userSpaceOnUse" color-interpolation-filters="sRGB"><feFlood flood-opacity="0" result="BackgroundImageFix"/><feColorMatrix in="SourceAlpha" values="0 0 0 0 0 0 0 0 0 0 0 0 0 0 0 0 0 0 127 0" result="hardAlpha"/><feOffset dy="4"/><feGaussianBlur stdDeviation="8"/><feComposite in2="hardAlpha" operator="out"/><feColorMatrix values="0 0 0 0 0.196078 0 0 0 0 0.333333 0 0 0 0 1 0 0 0 1 0"/><feBlend in2="BackgroundImageFix" result="effect1_dropShadow_14_185"/><feBlend in="SourceGraphic" in2="effect1_dropShadow_14_185" result="shape"/></filter><filter id="k" x="356.296" y="232.96" width="141.27" height="138.269" filterUnits="userSpaceOnUse" color-interpolation-filters="sRGB"><feFlood flood-opacity="0" result="BackgroundImageFix"/><feColorMatrix in="SourceAlpha" values="0 0 0 0 0 0 0 0 0 0 0 0 0 0 0 0 0 0 127 0" result="hardAlpha"/><feOffset dy="4"/><feGaussianBlur stdDeviation="8"/><feComposite in2="hardAlpha" operator="out"/><feColorMatrix values="0 0 0 0 0.196078 0 0 0 0 0.333333 0 0 0 0 1 0 0 0 1 0"/><feBlend in2="BackgroundImageFix" result="effect1_dropShadow_14_185"/><feBlend in="SourceGraphic" in2="effect1_dropShadow_14_185" result="shape"/></filter><filter id="l" x="45.559" y="274.896" width="141.27" height="138.269" filterUnits="userSpaceOnUse" color-interpolation-filters="sRGB"><feFlood flood-opacity="0" result="BackgroundImageFix"/><feColorMatrix in="SourceAlpha" values="0 0 0 0 0 0 0 0 0 0 0 0 0 0 0 0 0 0 127 0" result="hardAlpha"/><feOffset dy="4"/><feGaussianBlur stdDeviation="8"/><feComposite in2="hardAlpha" operator="out"/><feColorMatrix values="0 0 0 0 0.196078 0 0 0 0 0.333333 0 0 0 0 1 0 0 0 1 0"/><feBlend in2="BackgroundImageFix" result="effect1_dropShadow_14_185"/><feBlend in="SourceGraphic" in2="effect1_dropShadow_14_185" result="shape"/></filter><radialGradient id="d" cx="0" cy="0" r="1" gradientUnits="userSpaceOnUse" gradientTransform="rotate(-97.853 291.976 60.695) scale(204.58 299.811)"><stop stop-color="#FF8A00"/><stop offset="1" stop-color="#FFD600"/></radialGradient><radialGradient id="e" cx="0" cy="0" r="1" gradientUnits="userSpaceOnUse" gradientTransform="rotate(-97.853 291.976 60.695) scale(204.58 299.811)"><stop stop-color="#FF8A00"/><stop offset="1" stop-color="#FFD600"/></radialGradient><clipPath id="a"><path fill="#fff" d="M0 0h512v512H0z"/></clipPath></defs></svg>
